X: 1
T: Harsh February, The
M: 4/4
L: 1/8
R: reel
K: Dmaj
|:FABd B2AF|ABdf e2de|f2ed BddB|ABdD FEDE|
FABd B2AF|ABdf e2de|f2ed bafb|1afef d2z2:|2afef d2fa||
|:b3fa2 fe|ddde edBA|FABd ABdb|afde fefa|
b3fa2 fe|ddde edBA|FABd ABdb|1afef d2fa:|2afef d2||
